static/images/mobile/copyright/wikipedia-wordmark-fr.svg

<?xml version="1.0" encoding="UTF-8"?>
<svg viewBox="0 0 116 18" version="1.1" xmlns="http://www.w3.org/2000/svg" xmlns:xlink="http://www.w3.org/1999/xlink">
    <title>French Wikipedia</title>
            <g id="fr" fill="#54595D">
                <path d="M14.2325636,0.292267742 C15.1472569,0.317816129 15.6161746,0.345106452 16.1840249,0.345106452 C16.7527431,0.345106452 17.3703491,0.318687097 17.9879551,0.292267742 C18.1354863,0.450203226 18.1354863,1.00733226 17.9879551,1.16613871 C16.7029875,1.37807419 16.1663791,2.38607419 15.5586085,3.62778387 L13.7526534,7.31052581 L16.9130025,14.3229774 L17.026399,14.3229774 L21.7190474,3.44255806 C22.3045436,2.00952581 22.2623092,1.29765484 20.6568229,1.16613871 C20.5084239,1.00733226 20.5084239,0.451074194 20.6568229,0.292267742 C21.8176908,0.317816129 22.5342294,0.345106452 23.1029476,0.345106452 C23.6716658,0.345106452 24.2892718,0.318687097 25.2771521,0.292267742 C25.4258404,0.450203226 25.4258404,1.00733226 25.2771521,1.16613871 C23.6462095,1.37807419 23.3627182,2.38926774 22.8486733,3.62778387 L17.0000748,17.1298161 C16.8270873,17.5272677 16.6786883,17.7389129 16.4079252,17.7389129 C16.1605935,17.7389129 15.9699601,17.5240742 15.839207,17.1298161 L12.5157057,9.4446871 L8.87139651,17.1298161 C8.72386534,17.5272677 8.55000998,17.7389129 8.27837905,17.7389129 C8.03220449,17.7389129 7.85805985,17.5272677 7.71052868,17.1298161 L2.33576559,3.57581613 C1.58248878,1.6956871 1.53244389,1.29939677 0.124244389,1.16700968 C-0.0241546135,1.00820323 -0.0487431421,0.452235484 0.0999451372,0.29313871 C1.26081297,0.318687097 1.68113217,0.346267742 2.66901247,0.346267742 C3.63259352,0.346267742 4.2501995,0.319848387 5.41222444,0.29313871 C5.56062344,0.451074194 5.56062344,1.00820323 5.41222444,1.16700968 C3.85533666,1.35136452 3.78909227,1.7703 4.40959102,3.28462258 L8.93301247,14.3238484 L9.04640898,14.3238484 L11.8061097,8.30894516 L9.72360599,3.57581613 C8.89598504,1.6956871 8.69840898,1.32610645 7.63531671,1.16700968 C7.48778554,1.00820323 7.46232918,0.452235484 7.61101746,0.29313871 C8.4013217,0.318687097 8.8216409,0.346267742 9.8095212,0.346267742 C10.7731022,0.346267742 11.1688329,0.319848387 12.0583591,0.29313871 C12.2067581,0.451074194 12.2067581,1.00820323 12.0583591,1.16700968 C11.0204339,1.32610645 11.1190773,1.77523548 11.7962743,3.28462258 L13.0121047,5.95907419 L13.1205835,6.07781613 L14.4298504,3.44342903 C15.1932519,1.90849355 15.294788,1.32610645 14.2325636,1.16700968 C14.0841646,1.00617097 14.0841646,0.450203226 14.2325636,0.292267742 Z M28.5078823,14.1905903 C28.5078823,16.3874613 28.7795132,16.4943 30.2863561,16.5993968 C30.4350444,16.7582032 30.4350444,17.314171 30.2863561,17.4732677 C29.2241317,17.4477194 28.6065257,17.4201387 27.5443012,17.4201387 C26.4566204,17.4201387 25.8147152,17.4465581 24.77679,17.4732677 C24.6292589,17.314171 24.6292589,16.7582032 24.77679,16.5993968 C26.2836329,16.4670097 26.5564209,16.3874613 26.5564209,14.1905903 L26.5564209,8.47181613 C26.5564209,6.27494516 26.28479,6.16897742 24.77679,6.06300968 C24.6292589,5.90420323 24.6292589,5.34794516 24.77679,5.18913871 C25.8390145,5.21555806 26.4566204,5.24226774 27.520002,5.24226774 C28.6065257,5.24226774 29.249588,5.21671935 30.2875132,5.18913871 C30.4359122,5.34794516 30.4359122,5.90420323 30.2875132,6.06300968 C28.780381,6.19539677 28.5087501,6.27494516 28.5087501,8.47181613 L28.5087501,14.1905903 L28.5078823,14.1905903 Z M32.6327671,6.06303871 C32.4852359,5.90423226 32.4852359,5.34797419 32.6327671,5.18916774 C33.6706923,5.2155871 34.3125975,5.24200645 35.4002783,5.24200645 C36.3149716,5.24200645 36.7098344,5.21674839 37.7720589,5.18916774 C37.91959,5.34797419 37.91959,5.90423226 37.7720589,6.06303871 C36.5857347,6.19542581 36.3638594,6.27497419 36.3638594,8.47184516 L36.3638594,10.8275226 C37.1787521,10.8275226 37.902812,10.4097484 38.958383,9.13290968 C40.8609566,6.83007097 41.1082883,6.14142581 39.8730763,6.06216774 C39.724388,5.90307097 39.724388,5.34710323 39.8730763,5.18829677 C40.9353007,5.21471613 41.8742933,5.24113548 42.5908319,5.24113548 C43.2327372,5.24113548 43.6530564,5.2155871 44.320418,5.18829677 C44.4679491,5.34710323 44.4679491,5.90307097 44.320418,6.06216774 C43.3325377,6.11500645 42.4256549,6.24942581 41.6761387,7.17410323 L39.5514005,9.79484516 C39.1313706,10.2715548 38.9826823,10.5627484 38.9826823,10.7746839 C38.9826823,10.9334903 39.081615,11.0658774 39.2057147,11.2246839 L42.8624628,15.8315226 C43.1858743,16.2336194 43.7771561,16.5190065 44.4436499,16.5982645 C44.591181,16.7573613 44.591181,17.2869097 44.4436499,17.4457161 C44.4436499,17.4457161 43.2327372,17.4192968 42.540787,17.4192968 C41.8977247,17.4192968 41.2801187,17.4457161 41.0084878,17.4721355 L41.0084878,17.1013935 C41.0084878,16.7573613 40.9841885,16.4670387 40.6382135,16.0431677 L37.8961586,12.3888774 C37.525595,11.859329 36.9071212,11.7269419 36.3638594,11.7269419 L36.3638594,14.1894581 C36.3638594,16.3866194 36.5866025,16.4658774 37.7720589,16.5982645 C37.91959,16.7573613 37.91959,17.313329 37.7720589,17.4721355 C36.7098344,17.4465871 36.3141037,17.4192968 35.4002783,17.4192968 C34.3125975,17.4192968 33.6706923,17.4457161 32.6327671,17.4721355 C32.4852359,17.313329 32.4852359,16.7573613 32.6327671,16.5982645 C34.13961,16.4658774 34.4112409,16.3866194 34.4112409,14.1894581 L34.4112409,8.47068387 C34.4112409,6.2738129 34.13961,6.19455484 32.6327671,6.06303871 Z M50.0488509,14.1905903 C50.0488509,16.3874613 50.3204818,16.4943 51.8273247,16.5993968 C51.976013,16.7582032 51.976013,17.314171 51.8273247,17.4732677 C50.7651002,17.4477194 50.1474943,17.4201387 49.0852698,17.4201387 C47.997589,17.4201387 47.3556838,17.4465581 46.3177586,17.4732677 C46.1702274,17.314171 46.1702274,16.7582032 46.3177586,16.5993968 C47.8246015,16.4670097 48.0962324,16.3874613 48.0962324,14.1905903 L48.0962324,8.47181613 C48.0962324,6.27494516 47.8246015,6.16897742 46.3177586,6.06300968 C46.1702274,5.90420323 46.1702274,5.34794516 46.3177586,5.18913871 C47.379983,5.21555806 47.997589,5.24226774 49.0609706,5.24226774 C50.1474943,5.24226774 50.7905566,5.21671935 51.8284818,5.18913871 C51.9768808,5.34794516 51.9768808,5.90420323 51.8284818,6.06300968 C50.3216389,6.19539677 50.0497187,6.27494516 50.0497187,8.47181613 L50.0497187,14.1905903 L50.0488509,14.1905903 Z M59.7577037,16.5993097 C59.9052349,16.7581161 59.9052349,17.3143742 59.7577037,17.4731806 C58.6943222,17.4476323 58.0767162,17.4203419 57.0144918,17.4203419 C55.9279681,17.4203419 55.2849057,17.4467613 54.2469805,17.4731806 C54.0985815,17.3143742 54.0985815,16.7581161 54.2469805,16.5993097 C55.7538234,16.4669226 56.0254544,16.3873742 56.0254544,14.1905032 L56.0254544,8.47172903 C56.0254544,6.27485806 55.7538234,6.16889032 54.2469805,6.06292258 C54.0985815,5.90411613 54.0985815,5.34814839 54.2469805,5.18905161 C55.309205,5.21576129 55.926811,5.24218065 56.9890354,5.24218065 C57.6566863,5.24218065 58.6943222,5.18905161 59.6081476,5.18905161 C63.1162075,5.18905161 63.8590703,7.04276129 63.8590703,8.41889032 C63.8590703,10.0075355 62.8457337,12.548729 59.5338035,12.548729 C58.9161975,12.548729 58.4226913,12.4439226 57.9780728,12.2311161 L57.9780728,14.1905032 C57.9780728,16.3873742 58.2497037,16.4933419 59.7577037,16.5993097 Z M57.9780728,11.3836645 C58.4715791,11.5956 59.089185,11.6748581 59.5835591,11.6748581 C61.0669706,11.6748581 61.7091651,10.6450839 61.7091651,8.73650323 C61.7091651,6.87989032 60.9177037,6.06205161 59.4606165,6.06205161 C58.2742923,6.06205161 57.9780728,6.40637419 57.9780728,7.25382581 L57.9780728,11.3836645 Z M69.464387,11.4630968 L69.464387,15.434129 C69.464387,15.9372581 69.8103621,16.5991935 70.2549805,16.5991935 L72.3071102,16.5991935 C73.8628409,16.5991935 74.5802474,15.2753226 74.9748209,13.7139677 C75.245584,13.6344194 75.4440279,13.6884194 75.6659032,13.8199355 C75.4929157,14.9321613 75.2212848,16.3875484 74.9250653,17.4730645 C74.9250653,17.4730645 73.2941227,17.4202258 72.3062424,17.4202258 L68.4999382,17.4202258 C68.4999382,17.4202258 66.7700628,17.4466452 65.7324269,17.4730645 C65.5848958,17.3142581 65.5848958,16.7582903 65.7324269,16.5991935 C67.2401377,16.4668065 67.5109007,16.3875484 67.5109007,14.1906774 L67.5109007,8.47190323 C67.5109007,6.27474194 67.2401377,6.16906452 65.7324269,6.06309677 C65.5848958,5.90429032 65.5848958,5.34803226 65.7324269,5.18922581 C66.7955192,5.21564516 68.4753496,5.24206452 68.4753496,5.24206452 L73.5903421,5.24206452 C74.0847162,5.24206452 74.2568359,5.18922581 74.6025217,5.13725806 C74.6525666,5.13725806 74.6768658,5.16280645 74.6768658,5.21651613 C74.7257536,5.40116129 75.0228409,7.46651613 75.1214843,8.36680645 C74.9241975,8.47190323 74.7014544,8.5256129 74.4541227,8.49919355 C74.0095042,6.99096774 73.6878284,6.11593548 72.1555292,6.11593548 L70.2529556,6.11593548 C69.7840379,6.11593548 69.4623621,6.40741935 69.4623621,6.85741935 L69.4623621,10.6168065 L70.8705616,10.6168065 C72.6004369,10.5912581 72.5249357,10.3253226 72.5749805,9.13383871 C72.6990803,9.00145161 73.1436988,9.00145161 73.2666414,9.13383871 C73.2423421,9.79577419 73.2180429,10.2724839 73.2180429,11.0139677 C73.2180429,11.7554516 73.2414743,12.1790323 73.2666414,12.9469355 C73.1436988,13.0793226 72.6990803,13.0793226 72.5749805,12.9469355 C72.5249357,11.9670968 72.6247362,11.4639677 70.8705616,11.4639677 L69.464387,11.4639677 L69.464387,11.4630968 Z M83.8422833,5.18908065 C87.9682384,5.18908065 89.9940439,7.94308065 89.9940439,11.4632419 C89.9940439,16.0962097 86.9303132,17.4723387 84.1882584,17.4723387 C82.2113406,17.4723387 81.3209466,17.4192097 80.5812658,17.4192097 C79.493585,17.4192097 78.8516798,17.445629 77.8137546,17.4723387 C77.6653556,17.3132419 77.6653556,16.7572742 77.8137546,16.5984677 C79.3217546,16.4660806 79.5922284,16.3865323 79.5922284,14.1896613 L79.5922284,8.4708871 C79.5922284,6.27401613 79.3217546,6.16804839 77.8137546,6.06208065 C77.6653556,5.90327419 77.6653556,5.34701613 77.8137546,5.18820968 C78.8759791,5.21462903 79.493585,5.24104839 80.5569666,5.24104839 C81.0258843,5.24191935 83.1992209,5.18908065 83.8422833,5.18908065 Z M83.5940838,16.5993387 C86.3118394,16.5993387 87.8450065,15.6195 87.8450065,11.9141129 C87.8450065,9.16040323 87.2762883,6.06295161 83.1248768,6.06295161 C82.161585,6.06295161 81.5448469,6.22204839 81.5448469,6.88398387 L81.5448469,15.4078548 C81.5448469,16.1490484 81.7169666,16.5993387 83.5940838,16.5993387 Z M95.6989875,14.1905903 C95.6989875,16.3874613 95.9697506,16.4943 97.4774613,16.5993968 C97.6249925,16.7582032 97.6249925,17.314171 97.4774613,17.4732677 C96.4143691,17.4477194 95.7967631,17.4201387 94.7345387,17.4201387 C93.6468579,17.4201387 93.0046633,17.4465581 91.9670274,17.4732677 C91.8194963,17.314171 91.8194963,16.7582032 91.9670274,16.5993968 C93.4747382,16.4670097 93.7455012,16.3874613 93.7455012,14.1905903 L93.7455012,8.47181613 C93.7455012,6.27494516 93.4747382,6.16897742 91.9670274,6.06300968 C91.8194963,5.90420323 91.8194963,5.34794516 91.9670274,5.18913871 C93.0301197,5.21555806 93.6468579,5.24226774 94.7099501,5.24226774 C95.7967631,5.24226774 96.4398254,5.21671935 97.4774613,5.18913871 C97.6249925,5.34794516 97.6249925,5.90420323 97.4774613,6.06300968 C95.9697506,6.19539677 95.6989875,6.27494516 95.6989875,8.47181613 L95.6989875,14.1905903 Z M104.492019,16.5992516 C104.640707,16.7583484 104.640707,17.3143161 104.492019,17.4731226 C103.577326,17.4475742 102.343271,17.4202839 101.329645,17.4202839 C100.367221,17.4202839 100.045834,17.4467032 99.1311411,17.4731226 C98.9833207,17.3143161 98.9833207,16.7583484 99.1311411,16.5992516 C100.206094,16.5199935 100.949535,16.3562516 101.602433,14.7202839 L107.094353,0.945348387 C107.375819,0.235509677 107.562403,5.80645161e-05 107.928049,5.80645161e-05 C108.274024,5.80645161e-05 108.414612,0.283412903 108.594543,0.795541935 L113.660358,15.1438645 C114.117705,16.5072194 114.925944,16.5072194 115.88345,16.5992516 C116.032139,16.7583484 116.032139,17.3143161 115.88345,17.4731226 C114.969046,17.4475742 114.07952,17.4202839 113.066184,17.4202839 C112.10376,17.4202839 110.744448,17.4467032 109.829755,17.4731226 C109.682223,17.3143161 109.682223,16.7583484 109.829755,16.5992516 C111.006243,16.5092516 112.025366,16.6053484 111.657984,15.5146065 L110.151141,11.0404452 L105.010982,11.0404452 C104.418832,11.0404452 104.270144,11.1452516 104.146044,11.4904452 L102.786732,15.3282194 C102.402862,16.4160581 103.56373,16.5295742 104.492019,16.5992516 Z M109.75541,9.92821935 L107.359331,2.86002581 L107.309286,2.86002581 L104.834233,9.57605806 C104.730383,9.86260645 104.908288,9.92821935 105.456468,9.92821935 L109.75541,9.92821935 Z M71.16,2.057 C71.16,2.20433407 71.1090005,2.30916635 71.007,2.3715 L68.032,4.216 C67.9809997,4.25000017 67.9300003,4.267 67.879,4.267 C67.8393331,4.267 67.7812504,4.22733373 67.70475,4.148 C67.6282496,4.06866627 67.59,3.99500034 67.59,3.927 C67.59,3.87599974 67.6211664,3.82216695 67.6835,3.7655 L70.225,1.36 C70.281667,1.30333305 70.3553329,1.275 70.446,1.275 C70.6386676,1.275 70.8058326,1.36424911 70.9475,1.54275 C71.0891674,1.72125089 71.16,1.89266584 71.16,2.057 Z" id="Combined-Shape"></path>
            </g>

</svg>

<?xml version="1.0" encoding="UTF-8"?><svg viewBox="0 0 116 18" xmlns="http://www.w3.org/2000/svg"><title>French Wikipedia</title><g id="fr" fill="#54595D"><path d="M14.233.292c.914.026 1.383.053 1.951.053.569 0 1.186-.026 1.804-.053.147.158.147.715 0 .874-1.285.212-1.822 1.22-2.43 2.462L13.754 7.31l3.16 7.012h.113l4.693-10.88c.586-1.433.543-2.145-1.062-2.277-.149-.159-.149-.715 0-.874 1.16.026 1.877.053 2.446.053.569 0 1.186-.026 2.174-.053.149.158.149.715 0 .874-1.63.212-1.914 1.223-2.428 2.462L17 17.13c-.173.397-.321.609-.592.609-.247 0-.438-.215-.569-.61l-3.323-7.684L8.87 17.13c-.147.397-.321.609-.593.609-.246 0-.42-.212-.567-.61L2.336 3.577c-.754-1.88-.804-2.277-2.212-2.409C-.024 1.008-.049.452.1.293 1.26.32 1.68.346 2.669.346 3.633.346 4.25.32 5.412.293c.149.158.149.715 0 .874-1.557.184-1.623.603-1.002 2.118l4.523 11.039h.113l2.76-6.015-2.082-4.733c-.828-1.88-1.026-2.25-2.089-2.409-.147-.159-.173-.715-.024-.874.79.026 1.21.053 2.199.053.963 0 1.359-.026 2.248-.053.149.158.149.715 0 .874-1.038.16-.939.608-.262 2.118l1.216 2.674.109.119 1.309-2.635c.763-1.535.865-2.117-.197-2.276-.149-.16-.149-.717 0-.875zm14.275 13.899c0 2.196.272 2.303 1.778 2.408.149.16.149.715 0 .874-1.062-.025-1.68-.053-2.742-.053-1.087 0-1.73.027-2.767.053-.148-.159-.148-.715 0-.874 1.507-.132 1.78-.212 1.78-2.408V8.47c0-2.196-.272-2.302-1.78-2.408-.148-.159-.148-.715 0-.874 1.062.027 1.68.053 2.743.053 1.087 0 1.73-.025 2.768-.053.148.159.148.715 0 .874-1.508.132-1.78.212-1.78 2.409v5.719zm4.125-8.128c-.148-.159-.148-.715 0-.874 1.038.027 1.68.053 2.767.053.915 0 1.31-.025 2.372-.053.148.159.148.715 0 .874-1.186.132-1.408.212-1.408 2.409v2.356c.815 0 1.539-.418 2.594-1.695 1.903-2.303 2.15-2.992.915-3.07-.149-.16-.149-.716 0-.875 1.062.027 2.001.053 2.718.053.642 0 1.062-.025 1.73-.053.147.16.147.715 0 .874-.988.053-1.895.187-2.645 1.112l-2.125 2.62c-.42.478-.568.769-.568.98 0 .16.099.292.223.45l3.656 4.608c.324.402.915.687 1.582.766.147.16.147.689 0 .848 0 0-1.211-.027-1.903-.027-.643 0-1.26.027-1.533.053v-.37c0-.345-.024-.635-.37-1.059l-2.742-3.654c-.37-.53-.989-.662-1.532-.662v2.462c0 2.198.223 2.277 1.408 2.41.148.158.148.714 0 .873-1.062-.025-1.458-.053-2.372-.053-1.087 0-1.73.027-2.767.053-.148-.159-.148-.715 0-.874 1.507-.132 1.778-.211 1.778-2.409V8.471c0-2.197-.271-2.276-1.778-2.408zm17.416 8.128c0 2.196.271 2.303 1.778 2.408.149.16.149.715 0 .874-1.062-.025-1.68-.053-2.742-.053-1.087 0-1.73.027-2.767.053-.148-.159-.148-.715 0-.874 1.507-.132 1.778-.212 1.778-2.408V8.47c0-2.196-.271-2.302-1.778-2.408-.148-.159-.148-.715 0-.874 1.062.027 1.68.053 2.743.053 1.086 0 1.73-.025 2.767-.053.149.159.149.715 0 .874-1.506.132-1.778.212-1.778 2.409v5.719h-.001zm9.709 2.408c.147.16.147.715 0 .874-1.064-.025-1.681-.053-2.744-.053-1.086 0-1.73.027-2.767.053-.148-.159-.148-.715 0-.874 1.507-.132 1.778-.212 1.778-2.408V8.47c0-2.196-.271-2.302-1.778-2.408-.148-.159-.148-.715 0-.874 1.062.027 1.68.053 2.742.053.668 0 1.705-.053 2.62-.053 3.507 0 4.25 1.854 4.25 3.23 0 1.589-1.013 4.13-4.325 4.13-.618 0-1.111-.105-1.556-.318v1.96c0 2.196.272 2.302 1.78 2.408zm-1.78-5.215c.494.212 1.111.29 1.606.29 1.483 0 2.125-1.029 2.125-2.937 0-1.857-.791-2.675-2.248-2.675-1.187 0-1.483.344-1.483 1.192v4.13zm11.486.08v3.97c0 .503.346 1.165.791 1.165h2.052c1.556 0 2.273-1.324 2.668-2.885.27-.08.469-.026.69.106-.172 1.112-.444 2.568-.74 3.653 0 0-1.63-.053-2.619-.053H68.5s-1.73.027-2.768.053c-.147-.159-.147-.715 0-.874 1.508-.132 1.779-.211 1.779-2.408V8.47c0-2.196-.27-2.302-1.779-2.408-.147-.159-.147-.715 0-.874 1.064.027 2.743.053 2.743.053h5.115c.495 0 .667-.053 1.013-.105.05 0 .074.026.074.08.049.184.346 2.25.444 3.15-.197.105-.42.159-.667.132-.444-1.508-.766-2.383-2.298-2.383h-1.903c-.469 0-.79.291-.79.741v3.76h1.408c1.73-.026 1.654-.292 1.704-1.483.124-.133.569-.133.692 0-.025.662-.049 1.138-.049 1.88 0 .741.023 1.165.049 1.933-.123.132-.568.132-.692 0-.05-.98.05-1.483-1.704-1.483h-1.407zm14.378-6.275c4.126 0 6.152 2.754 6.152 6.274 0 4.633-3.064 6.01-5.806 6.01-1.977 0-2.867-.054-3.607-.054-1.087 0-1.73.027-2.767.053-.149-.159-.149-.715 0-.874 1.508-.132 1.778-.211 1.778-2.408V8.47c0-2.196-.27-2.302-1.778-2.408-.149-.159-.149-.715 0-.874 1.062.027 1.68.053 2.743.053.469 0 2.642-.052 3.285-.052zm-.248 11.41c2.718 0 4.251-.98 4.251-4.685 0-2.754-.569-5.851-4.72-5.851-.963 0-1.58.159-1.58.821v8.524c0 .741.172 1.191 2.05 1.191zM95.7 14.191c0 2.196.27 2.303 1.778 2.408.148.16.148.715 0 .874-1.063-.025-1.68-.053-2.742-.053-1.088 0-1.73.027-2.768.053-.148-.159-.148-.715 0-.874 1.508-.132 1.779-.212 1.779-2.408V8.47c0-2.196-.271-2.302-1.779-2.408-.148-.159-.148-.715 0-.874 1.063.027 1.68.053 2.743.053 1.087 0 1.73-.025 2.767-.053.148.159.148.715 0 .874-1.507.132-1.778.212-1.778 2.409v5.719zm8.793 2.408c.149.16.149.715 0 .874a122.54 122.54 0 0 0-3.162-.053c-.963 0-1.284.027-2.199.053-.148-.159-.148-.715 0-.874 1.075-.079 1.819-.243 2.471-1.879L107.094.945c.282-.71.468-.945.834-.945.346 0 .487.283.667.796l5.065 14.348c.458 1.363 1.266 1.363 2.223 1.455.15.16.15.715 0 .874-.914-.025-1.803-.053-2.817-.053-.962 0-2.322.027-3.236.053-.148-.159-.148-.715 0-.874 1.176-.09 2.195.006 1.828-1.084l-1.507-4.475h-5.14c-.592 0-.74.105-.865.45l-1.36 3.838c-.383 1.088.778 1.202 1.706 1.271zm5.263-6.67L107.36 2.86h-.05l-2.475 6.716c-.104.287.074.352.622.352h4.3zM71.16 2.056c0 .147-.051.252-.153.315l-2.975 1.844a.274.274 0 0 1-.153.051c-.04 0-.098-.04-.174-.119-.077-.08-.115-.153-.115-.221 0-.051.031-.105.093-.162l2.542-2.405a.299.299 0 0 1 .221-.085c.193 0 .36.09.502.268.141.178.212.35.212.514z" id="Combined-Shape"/></g></svg>
